X: 105
T: Dust in the Lane
C:W.R. Newman
B: canberra pickers and fiddlers
B: old time tunes update
B: tunes
M:2/2
L:1/8
Q: 1/2=100
K:Am
V:1 
%TablEdited by Jim Kendrick
%320
|:"Am"[E2A,2][EA,][DG,][E2A,2][EA,][DG,] | [EA,][GA,][EA,][DG,] "G"A,B,CG, | "Am"[E2A,2][EA,][DG,][E2A,2] E^F | "E"GEDC "A"[E2A,2] z2:|
|:"Am"[E2A2][AA][AB] [A2A2] Ac | "G"BAG^G A=GED | "Am"[E2A2][AA][AB] [A2A2][G2A2] |"E"EGDC "Am"[A,2E2] z2:|
|:"A"a2 ab age^f | "G"g^fga gfeg | "A"a2 ab age^f | "E"gedB "A"[AA] z2:|
|:"Am"[E2A2][AA][AB] [A2A2] Ac | "G"BAGA Bcd^d | "E"[e2e2] [ee]^f [ee]dBc | "E"[ee]dBG "A"[A2A2]z2:|
% abcbook-tune_id 67a7d9ecb32e345eca6b2e66
% abcbook-tune_composer_id 
% abcbook-link-0 https://www.youtube.com/watch?v=XUuEm1-e5Gc
% abcbook-link-title-0 Dust in the Lane
% abcbook-boost 0
% abcbook-difficulty 0
% abcbook-tags old time tunes
% abcbook-tablature 
% abcbook-transpose 
% abcbook-tuning GDAE
% abcbook-lastupdated 1739078533102
% abcbook-src-url 
% abcbook-soundfonts 
% abcbook-repeats 1


